X:271
T:President Garfield's Hornpipe
R:hp 64 reel
C:Harry Carleton 1880 USA
M:4/4
L:1/8
Q:1/4=140
K:G
|:GDB,D GDB,D|GFGA GABc|dAFA dAFA|d^cde d=cBA|
GDB,D GDB,D|GFGA GABc|defe dcBA|1
G2G2.G2D2:|2G2G2.G2gf||
|:ecGE Gceg|dBGD GBed|cAed cAed|BGed BGgf|
ecGE Gceg|dBGD GBc^c|defe dcBA|1
G2G2.G2gf:|2G2G2.G2D2||
|:GDB,D GDB,D|GFGA BABc|dAFA dAFA|defe dcBA|
GDB,D GDB,D|GFGA BABc|defe dcBA|1
G2B2G2D2:|2G2B2G2gf||
|:ecGE- EGce|dBGD- DGBd|cAed cAed|BGed BGgf|
ecGE- EGce|dBGD- DGBd|defe dcBA|1
G2B2G2gf:|2G2B2G4|]

